X:130
T:Unknown Jig
M:6/8
L:1/8
F:http://blackrosetheband.googlepages.com/ABCTUNES.ABC May 2009
K:G
AG|:"D"F2D DAG|F2D DAG|F2D DED|"C"C2 A, A,AG|
"D"F2D DAG|F2D DED|"G"BAB "C"cAF|1 AGF "G"GAF:|2 AGF "G"G2A
|:"G"B2B "C"cBc|"G"d2d ABc|B2G GAG|"D"FGF DED|
"G"BAB "C"cBc|"G"d2d ABc|BAB "(C)"cAF|1 "D"AGF "G"G2A:|2 "D"AGF "G"G3||
